dist/svg/check-in-duo-tone-1.svg

<svg xmlns="http://www.w3.org/2000/svg" viewBox="0 0 24 24"><path d="M9.5 1.857c-.154.03-1.423.337-2.82.682-2.988.739-3.076.771-3.596 1.295a2.8 2.8 0 0 0-.715 1.146l-.109.32v13.4l.109.321c.253.746.751 1.325 1.428 1.661.249.123.477.183 4.923 1.285.799.198.892.212 1.32.209.383-.003.514-.021.78-.108a2.8 2.8 0 0 0 1.414-1.031l.186-.27 2.04-.014 2.04-.015.32-.108c.443-.15.783-.361 1.116-.694.334-.334.545-.674.693-1.116.105-.315.107-.341.122-1.583.017-1.36.002-1.504-.177-1.717-.149-.177-.321-.253-.574-.253-.237 0-.409.069-.545.219-.192.212-.194.228-.215 1.574-.019 1.239-.023 1.286-.113 1.469-.132.268-.416.534-.674.63-.204.077-.309.081-1.955.081H12.76V4.758l1.79.011c1.779.011 1.791.012 1.978.104.239.118.481.36.599.599.09.182.094.232.113 1.468.017 1.109.029 1.297.089 1.405a.76.76 0 0 0 1.245.135c.179-.213.194-.357.177-1.717-.015-1.242-.017-1.268-.122-1.583a2.7 2.7 0 0 0-.694-1.116c-.472-.471-.961-.709-1.606-.783-.192-.022-1.15-.041-2.129-.042l-1.78-.002-.19-.278c-.574-.837-1.721-1.3-2.73-1.102m1.069 1.594c.266.156.539.478.611.72.053.178.06 1.145.06 7.829 0 8.564.026 7.869-.305 8.237-.271.301-.483.412-.829.433-.264.015-.488-.033-2.905-.631-1.441-.356-2.688-.682-2.772-.725a1.43 1.43 0 0 1-.563-.588l-.086-.186V5.46l.086-.186c.097-.211.346-.476.542-.579.073-.039 1.302-.363 2.732-.721 2.435-.61 2.621-.65 2.924-.64.266.009.356.03.505.117m8.199 5.833c-.313.094-.564.505-.508.834.041.242.146.368.619.745l.449.357-2.274.02c-2.51.022-2.401.011-2.628.28a.9.9 0 0 0-.186.48c0 .135.089.365.186.48.227.269.118.258 2.627.28l2.273.02-.462.37c-.254.203-.493.428-.531.5a.9.9 0 0 0-.07.354c-.003.504.49.868.958.707.191-.066 2.764-2.107 2.897-2.299.171-.246.158-.636-.03-.859-.105-.125-2.608-2.147-2.755-2.226-.117-.063-.422-.086-.565-.043M9.3 11.274c-.469.153-.686.676-.453 1.09.238.424.858.526 1.24.204.432-.364.316-1.044-.216-1.266a1 1 0 0 0-.571-.028"/></svg>

<svg fill="none" xmlns="http://www.w3.org/2000/svg" viewBox="0 0 24 24"><path d="M9.500 1.857 C 9.346 1.887,8.077 2.194,6.680 2.539 C 3.692 3.278,3.604 3.310,3.084 3.834 C 2.735 4.186,2.524 4.524,2.369 4.980 L 2.260 5.300 2.260 12.000 L 2.260 18.700 2.369 19.021 C 2.622 19.767,3.120 20.346,3.797 20.682 C 4.046 20.805,4.274 20.865,8.720 21.967 C 9.519 22.165,9.612 22.179,10.040 22.176 C 10.423 22.173,10.554 22.155,10.820 22.068 C 11.400 21.878,11.912 21.504,12.234 21.037 L 12.420 20.767 14.460 20.753 L 16.500 20.738 16.820 20.630 C 17.263 20.480,17.603 20.269,17.936 19.936 C 18.270 19.602,18.481 19.262,18.629 18.820 C 18.734 18.505,18.736 18.479,18.751 17.237 C 18.768 15.877,18.753 15.733,18.574 15.520 C 18.425 15.343,18.253 15.267,18.000 15.267 C 17.763 15.267,17.591 15.336,17.455 15.486 C 17.263 15.698,17.261 15.714,17.240 17.060 C 17.221 18.299,17.217 18.346,17.127 18.529 C 16.995 18.797,16.711 19.063,16.453 19.159 C 16.249 19.236,16.144 19.240,14.498 19.240 L 12.760 19.240 12.760 11.999 L 12.760 4.758 14.550 4.769 C 16.329 4.780,16.341 4.781,16.528 4.873 C 16.767 4.991,17.009 5.233,17.127 5.472 C 17.217 5.654,17.221 5.704,17.240 6.940 C 17.257 8.049,17.269 8.237,17.329 8.345 C 17.586 8.816,18.233 8.886,18.574 8.480 C 18.753 8.267,18.768 8.123,18.751 6.763 C 18.736 5.521,18.734 5.495,18.629 5.180 C 18.481 4.738,18.270 4.398,17.935 4.064 C 17.463 3.593,16.974 3.355,16.329 3.281 C 16.137 3.259,15.179 3.240,14.200 3.239 L 12.420 3.237 12.230 2.959 C 11.656 2.122,10.509 1.659,9.500 1.857 M10.569 3.451 C 10.835 3.607,11.108 3.929,11.180 4.171 C 11.233 4.349,11.240 5.316,11.240 12.000 C 11.240 20.564,11.266 19.869,10.935 20.237 C 10.664 20.538,10.452 20.649,10.106 20.670 C 9.842 20.685,9.618 20.637,7.201 20.039 C 5.760 19.683,4.513 19.357,4.429 19.314 C 4.216 19.206,3.968 18.946,3.866 18.726 L 3.780 18.540 3.780 12.000 L 3.780 5.460 3.866 5.274 C 3.963 5.063,4.212 4.798,4.408 4.695 C 4.481 4.656,5.710 4.332,7.140 3.974 C 9.575 3.364,9.761 3.324,10.064 3.334 C 10.330 3.343,10.420 3.364,10.569 3.451 M18.768 9.284 C 18.455 9.378,18.204 9.789,18.260 10.118 C 18.301 10.360,18.406 10.486,18.879 10.863 L 19.328 11.220 17.054 11.240 C 14.544 11.262,14.653 11.251,14.426 11.520 C 14.329 11.635,14.240 11.865,14.240 12.000 C 14.240 12.135,14.329 12.365,14.426 12.480 C 14.653 12.749,14.544 12.738,17.053 12.760 L 19.326 12.780 18.864 13.150 C 18.610 13.353,18.371 13.578,18.333 13.650 C 18.292 13.727,18.264 13.871,18.263 14.004 C 18.260 14.508,18.753 14.872,19.221 14.711 C 19.412 14.645,21.985 12.604,22.118 12.412 C 22.289 12.166,22.276 11.776,22.088 11.553 C 21.983 11.428,19.480 9.406,19.333 9.327 C 19.216 9.264,18.911 9.241,18.768 9.284 M9.300 11.274 C 8.831 11.427,8.614 11.950,8.847 12.364 C 9.085 12.788,9.705 12.890,10.087 12.568 C 10.519 12.204,10.403 11.524,9.871 11.302 C 9.721 11.239,9.447 11.226,9.300 11.274 " stroke="none" fill-rule="evenodd"/></svg>
